X: 26320
T: Men From Ulster, The
R: hornpipe
M: 4/4
K: Gmajor
|:d>B|g,>b,d>g b>gd>b,|c>ea>b c'2 e>c|B>dg>d e>cA>G|(3FGA (3GFE (3Ded (3cb,a,|
g,>b,d>g b>gd>b,|c>ea>b a2 (3def|g>fg>e (3ded (3cBA|G>Bd>B g2:|
|:B>c|d>gf>g e>gf>g|b>g (3agf g2 (3edB|(3cde (3ABc (3Bcd G2|(3AGF (3AGE D2 B>c|
d>g (3gfg e2 (3gfg|b>ga>f g>ed>B|c>de>f g2 (3gfe|d>Bc>A G2:|

